X:6     
T:Talisker on Ba bridge
R:reel
C:Dominique Renaudin
I:domren#free.fr
I:To Cape Towners
Q:1/4=200
M:4/4 
L:1/8 
K:D
BG FB _Bc =BG |FE _EB, _E=E FG |cd cB _BG FF |_B=B cd fF f2 |
BG FB (3BBB BG |FE _EB, _E=E FG |cd cB _BG FF |1cB _BG F2 FF :|2cB _BG F2 Ff:|
eB (3BBB gB fB |eB (3BBB gB fB |eB (3BBB fB eB |dA (3AAA fA eA |
dA (3AAA fA dA |eB (3BBB gB fB |eB (3BBB A2 z2 |1AF AB Ad Af:|2AB =c^c _e =e3 |]
